toolkits/global/packages/global-context/img/icons/collections.svg

<svg height="24" viewBox="0 0 24 24" width="24" xmlns="http://www.w3.org/2000/svg"><path d="m18 7c1.1045695 0 2 .8954305 2 2v9c0 1.1045695-.8954305 2-2 2h-8c-1.1045695 0-2-.8954305-2-2h1c0 .5128358.38604019.9355072.88337887.9932723l.11662113.0067277h8c.5128358 0 .9355072-.3860402.9932723-.8833789l.0067277-.1166211v-9c0-.51283584-.3860402-.93550716-.8833789-.99327227l-.1166211-.00672773h-1v-1zm-4-3c1.1045695 0 2 .8954305 2 2v9c0 1.1045695-.8954305 2-2 2h-8c-1.1045695 0-2-.8954305-2-2v-9c0-1.1045695.8954305-2 2-2zm0 1h-8c-.51283584 0-.93550716.38604019-.99327227.88337887l-.00672773.11662113v9c0 .5128358.38604019.9355072.88337887.9932723l.11662113.0067277h8c.5128358 0 .9355072-.3860402.9932723-.8833789l.0067277-.1166211v-9c0-.51283584-.3860402-.93550716-.8833789-.99327227zm-1.5 7c.2761424 0 .5.2238576.5.5s-.2238576.5-.5.5h-5c-.27614237 0-.5-.2238576-.5-.5s.22385763-.5.5-.5zm0-2c.2761424 0 .5.2238576.5.5s-.2238576.5-.5.5h-5c-.27614237 0-.5-.2238576-.5-.5s.22385763-.5.5-.5zm0-2c.2761424 0 .5.22385763.5.5s-.2238576.5-.5.5h-5c-.27614237 0-.5-.22385763-.5-.5s.22385763-.5.5-.5z" fill="#666" fill-rule="evenodd"/></svg>

<?xml version="1.0" encoding="UTF-8"?>
<svg width="24px" height="24px" viewBox="0 0 24 24" version="1.1" xmlns="http://www.w3.org/2000/svg" xmlns:xlink="http://www.w3.org/1999/xlink">
    <!-- Generator: Sketch 63.1 (92452) - https://sketch.com -->
    <title>icon-icon / collections</title>
    <desc>Created with Sketch.</desc>
    <g id="icon-/-collections" stroke="none" stroke-width="1" fill="none" fill-rule="evenodd">
        <path d="M18,7 C19.1045695,7 20,7.8954305 20,9 L20,18 C20,19.1045695 19.1045695,20 18,20 L10,20 C8.8954305,20 8,19.1045695 8,18 L9,18 C9,18.5128358 9.38604019,18.9355072 9.88337887,18.9932723 L10,19 L18,19 C18.5128358,19 18.9355072,18.6139598 18.9932723,18.1166211 L19,18 L19,9 C19,8.48716416 18.6139598,8.06449284 18.1166211,8.00672773 L18,8 L17,8 L17,7 L18,7 Z M14,4 C15.1045695,4 16,4.8954305 16,6 L16,15 C16,16.1045695 15.1045695,17 14,17 L6,17 C4.8954305,17 4,16.1045695 4,15 L4,6 C4,4.8954305 4.8954305,4 6,4 L14,4 Z M14,5 L6,5 C5.48716416,5 5.06449284,5.38604019 5.00672773,5.88337887 L5,6 L5,15 C5,15.5128358 5.38604019,15.9355072 5.88337887,15.9932723 L6,16 L14,16 C14.5128358,16 14.9355072,15.6139598 14.9932723,15.1166211 L15,15 L15,6 C15,5.48716416 14.6139598,5.06449284 14.1166211,5.00672773 L14,5 Z M12.5,12 C12.7761424,12 13,12.2238576 13,12.5 C13,12.7761424 12.7761424,13 12.5,13 L7.5,13 C7.22385763,13 7,12.7761424 7,12.5 C7,12.2238576 7.22385763,12 7.5,12 L12.5,12 Z M12.5,10 C12.7761424,10 13,10.2238576 13,10.5 C13,10.7761424 12.7761424,11 12.5,11 L7.5,11 C7.22385763,11 7,10.7761424 7,10.5 C7,10.2238576 7.22385763,10 7.5,10 L12.5,10 Z M12.5,8 C12.7761424,8 13,8.22385763 13,8.5 C13,8.77614237 12.7761424,9 12.5,9 L7.5,9 C7.22385763,9 7,8.77614237 7,8.5 C7,8.22385763 7.22385763,8 7.5,8 L12.5,8 Z" id="collections" fill="#666666"></path>
    </g>
</svg>
